X: 305826
M: 6/8
L: 1/8
K: G
(d/c/) |\
gbg dgd | ege cea | gab afd | g2[gB] [g2B2] H|]
[c/A/][d/c/] |\
(de)d (de)d | (Bd)B (GB)d | efg gfe | e2d d2B/c/ |\
(de)d (de)f | gba g2g | f2e a2^c | d2d d^c"^D.C."=c |]
d |\


